tools/download-figma-icons/icons/outlined-large/profit.svg

<svg width="64" height="64" viewBox="0 0 64 64" fill="none" xmlns="http://www.w3.org/2000/svg">
<path fill-rule="evenodd" clip-rule="evenodd" d="M49.5 20H56.5C57.328 20 58 20.672 58 21.5V62.5C58 63.328 57.328 64 56.5 64H49.5C48.672 64 48 63.328 48 62.5V21.5C48 20.672 48.672 20 49.5 20ZM21.5 27H28.5C29.328 27 30 27.672 30 28.5V62.5C30 63.328 29.328 64 28.5 64H21.5C20.672 64 20 63.328 20 62.5V28.5C20 27.672 20.672 27 21.5 27ZM7.5 39H14.5C15.328 39 16 39.672 16 40.5V62.5C16 63.328 15.328 64 14.5 64H7.5C6.672 64 6 63.328 6 62.5V40.5C6 39.672 6.672 39 7.5 39ZM42.5 33H35.5C34.672 33 34 33.672 34 34.5V62.5C34 63.328 34.672 64 35.5 64H42.5C43.328 64 44 63.328 44 62.5V34.5C44 33.672 43.328 33 42.5 33Z" fill="black"/>
<path fill-rule="evenodd" clip-rule="evenodd" d="M57.9043 0.986488C57.9012 0.979234 57.8992 0.97198 57.8971 0.964586C57.8952 0.957711 57.8932 0.950716 57.8903 0.943488C57.8193 0.765488 57.7153 0.606488 57.5863 0.469488C57.584 0.467218 57.5824 0.464624 57.5807 0.461892C57.5794 0.459811 57.578 0.45765 57.5763 0.455488C57.5754 0.454571 57.5743 0.454074 57.5732 0.453613C57.572 0.453068 57.5708 0.452571 57.5703 0.451488C57.4323 0.310488 57.2683 0.197488 57.0863 0.119488C57.0858 0.119488 57.0856 0.119238 57.0853 0.118988C57.0851 0.118738 57.0848 0.118488 57.0843 0.118488C56.9163 0.0474883 56.7313 0.00848828 56.5383 0.00448828C56.5343 0.00448828 56.5303 0.00398923 56.5263 0.00348971L56.5263 0.00348828L56.5263 0.00348685C56.5223 0.00298733 56.5183 0.00248828 56.5143 0.00248828C56.5118 0.00248828 56.5096 0.00198828 56.5073 0.00148828C56.5051 0.000988281 56.5028 0.000488281 56.5003 0.000488281H46.4583C45.6303 0.000488281 44.9583 0.672488 44.9583 1.50049C44.9583 2.32849 45.6303 3.00049 46.4583 3.00049H52.8023L38.6253 16.7735L25.5053 12.0875C24.9593 11.8935 24.3523 12.0295 23.9423 12.4365L6.8423 29.4365C6.2553 30.0205 6.2533 30.9695 6.8373 31.5575C7.1303 31.8525 7.5143 32.0005 7.9003 32.0005C8.2833 32.0005 8.6653 31.8545 8.9583 31.5635L25.3863 15.2305L38.4953 19.9135C39.0343 20.1035 39.6343 19.9735 40.0453 19.5765L55.0003 5.04849V11.6675C55.0003 12.4955 55.6723 13.1675 56.5003 13.1675C57.3283 13.1675 58.0003 12.4955 58.0003 11.6675V1.50049C58.0003 1.31949 57.9633 1.14749 57.9043 0.986488ZM9 61.0002H13V42.0002H9V61.0002ZM14.5 39.0002H7.5C6.672 39.0002 6 39.6722 6 40.5002V62.5002C6 63.3282 6.672 64.0002 7.5 64.0002H14.5C15.328 64.0002 16 63.3282 16 62.5002V40.5002C16 39.6722 15.328 39.0002 14.5 39.0002ZM27 61.0002H23V30.0002H27V61.0002ZM21.5 27.0002H28.5C29.328 27.0002 30 27.6722 30 28.5002V62.5002C30 63.3282 29.328 64.0002 28.5 64.0002H21.5C20.672 64.0002 20 63.3282 20 62.5002V28.5002C20 27.6722 20.672 27.0002 21.5 27.0002ZM37 61.0002H41V36.0002H37V61.0002ZM42.5 33.0002H35.5C34.672 33.0002 34 33.6722 34 34.5002V62.5002C34 63.3282 34.672 64.0002 35.5 64.0002H42.5C43.328 64.0002 44 63.3282 44 62.5002V34.5002C44 33.6722 43.328 33.0002 42.5 33.0002ZM55 61.0002H51V23.0002H55V61.0002ZM49.5 20.0002H56.5C57.328 20.0002 58 20.6722 58 21.5002V62.5002C58 63.3282 57.328 64.0002 56.5 64.0002H49.5C48.672 64.0002 48 63.3282 48 62.5002V21.5002C48 20.6722 48.672 20.0002 49.5 20.0002Z" fill="black"/>
</svg>

<svg width="64" height="64" viewBox="0 0 64 64" fill="none" xmlns="http://www.w3.org/2000/svg"><path fill-rule="evenodd" clip-rule="evenodd" d="m57.904.986-.007-.021a1.503 1.503 0 0 0-.31-.495c-.003-.003-.005-.005-.006-.008a.07.07 0 0 0-.005-.007l-.003-.001L57.57.45a1.509 1.509 0 0 0-.484-.332h-.002a1.48 1.48 0 0 0-.558-.116.097.097 0 0 0-.012 0L56.507 0a.031.031 0 0 0-.007 0H46.458a1.5 1.5 0 0 0 0 3h6.344L38.625 16.772l-13.12-4.685a1.503 1.503 0 0 0-1.563.349l-17.1 17a1.5 1.5 0 0 0 2.116 2.127L25.386 15.23l13.11 4.683a1.51 1.51 0 0 0 1.55-.337L55 5.048v6.62a1.5 1.5 0 0 0 3 0V1.5a1.49 1.49 0 0 0-.096-.514ZM9 61h4V42H9v19Zm5.5-22h-7A1.5 1.5 0 0 0 6 40.5v22A1.5 1.5 0 0 0 7.5 64h7a1.5 1.5 0 0 0 1.5-1.5v-22a1.5 1.5 0 0 0-1.5-1.5ZM27 61h-4V30h4v31Zm-5.5-34h7a1.5 1.5 0 0 1 1.5 1.5v34a1.5 1.5 0 0 1-1.5 1.5h-7a1.5 1.5 0 0 1-1.5-1.5v-34a1.5 1.5 0 0 1 1.5-1.5ZM37 61h4V36h-4v25Zm5.5-28h-7a1.5 1.5 0 0 0-1.5 1.5v28a1.5 1.5 0 0 0 1.5 1.5h7a1.5 1.5 0 0 0 1.5-1.5v-28a1.5 1.5 0 0 0-1.5-1.5ZM55 61h-4V23h4v38Zm-5.5-41h7a1.5 1.5 0 0 1 1.5 1.5v41a1.5 1.5 0 0 1-1.5 1.5h-7a1.5 1.5 0 0 1-1.5-1.5v-41a1.5 1.5 0 0 1 1.5-1.5Z" fill="currentColor"/></svg>
